!!!OTL: "Abschied" WOHLAN DIE ZEIT IST KOMMEN
!!!ARE: Europa, Mitteleuropa, Deutschland, Franken
!!!SCT: Z1193
!!!YEM: Copyright 1995, estate of Helmut Schaffrath.
**kern
*ICvox
*Ivox
*M2/4
*k[f#]
*G:
{8d
=1
8.g
16a
8b
8cc
=2
4dd
8b}
{8b
=3
8cc
8ee
8a
8a
=4
8b
8b
8b}
{8d
=5
8.g
16a
8b
8cc
=6
4dd
8b}
{8b
=7
8cc
8cc
8a
8a
=8
4b
8r}
{8dd
=9
8.cc
16cc
8a
8a
=10
8b
8b
8b}
{8dd
=11
8.dd
16cc
8a
8a
=12
8b
8b
8b}
{8d
=13
8.g
16a
8b
8cc
=14
4dd
8b}
{8b
=15
8cc
8cc
8a
8a
=16
4g
8r}
==
!!!AGN: Liebes - Lied, Abschieds - Lied
!!!ONB: ESAC (Essen Associative Code) Database: ZUCCAL
!!!AMT: simple duple
!!!AIN: vox
!!!EED: Helmut Schaffrath
!!!EEV: 1.0
*-
